!!!OTL: "Napoleon" DER GROSSE KAISER NAPOLEON, ZUM DRITTEN MALE KOMMT ER SCHON
!!!ARE: Europa, Mitteleuropa, Deutschland, Rhein
!!!SCT: Z1103
!!!YEM: Copyright 1995, estate of Helmut Schaffrath.
**kern
*ICvox
*Ivox
*M2/4
*k[f#c#g#]
*A:
{8e
=1
8a
8cc#
8b
16ee
16ee
=2
8.cc#
16b
8a}
{16a
16b
=3
8cc#
8cc#
8dd
16dd
16ff#
=4
8.ee
16dd
8cc#}
{8ee
=5
8ff#
8ee
4dd
=6
4cc#
8r}
{16cc#
16dd
=7
8.ee
16cc#
8.ff#
16ee
=8
8dd
16dd
16cc#
8b}
{16b
16cc#
=9
8dd
8b
8.ee
16dd
=10
8cc#
16cc#
16b
8a}
{8a
=11
8b
8ff#
8ee
8dd
=12
4cc#
8r}
==
!!!AGN: Soldaten - Lied
!!!ONB: ESAC (Essen Associative Code) Database: ZUCCAL
!!!AMT: simple duple
!!!AIN: vox
!!!EED: Helmut Schaffrath
!!!EEV: 1.0
*-
